packages/flutter/assets/icons/eye-open.svg

<?xml version="1.0" encoding="UTF-8"?>
<svg width="24px" height="24px" viewBox="0 0 24 24" version="1.1" xmlns="http://www.w3.org/2000/svg" xmlns:xlink="http://www.w3.org/1999/xlink">
    <title>eye-open</title>
    <g id="eye-open" stroke="none" stroke-width="1" fill="none" fill-rule="evenodd">
        <path d="M2,12 C8.0501976,3.06612206 16.0248756,3.06612206 22,12 C15.8891983,20.9259033 7.9540844,20.9259033 2,12 Z M20.5994441,11.7407409 C15.3030051,4.48508073 8.7647304,4.48522647 3.40449452,11.7450698 L3.215,12.004 L3.39912415,12.2594441 C8.67568211,19.5077419 15.1828914,19.5074385 20.592658,12.2504347 L20.781,11.993 L20.5994441,11.7407409 Z M12,8 C14.209139,8 16,9.790861 16,12 C16,14.209139 14.209139,16 12,16 C9.790861,16 8,14.209139 8,12 C8,9.790861 9.790861,8 12,8 Z M12,9 C10.3431458,9 9,10.3431458 9,12 C9,13.6568542 10.3431458,15 12,15 C13.6568542,15 15,13.6568542 15,12 C15,10.3431458 13.6568542,9 12,9 Z" id="Oval" fill="#303846"></path>
    </g>
</svg>

<svg xmlns="http://www.w3.org/2000/svg" width="24" height="24" viewBox="0 0 24 24"><path fill-rule="evenodd" d="M2 12c6.05-8.934 14.025-8.934 20 0-6.11 8.926-14.046 8.926-20 0zm18.6-.26c-5.297-7.255-11.835-7.255-17.196.005l-.189.259.184.255c5.277 7.249 11.784 7.248 17.194-.009l.188-.257-.182-.252zM12 8a4 4 0 1 1 0 8 4 4 0 0 1 0-8zm0 1a3 3 0 1 0 0 6 3 3 0 0 0 0-6z"/></svg>
